packages/tokens/icons/rocket/size24Px.svg

<svg viewBox="0 0 24 24" fill="none" xmlns="http://www.w3.org/2000/svg" width="1em" height="1em"><path d="M9 14.5L15 14.5" stroke="currentColor"/><path d="M9 6L15 6" stroke="currentColor"/><path d="M8.5 9.25184C8.5 7.24408 9.1361 5.28795 10.317 3.66421L10.7869 3.01811C11.3859 2.19445 12.6141 2.19445 13.2131 3.01811L13.683 3.66421C14.8639 5.28795 15.5 7.24408 15.5 9.25184L15.5 16C15.5 16.2761 15.2761 16.5 15 16.5H9C8.72386 16.5 8.5 16.2761 8.5 16V9.25184Z" stroke="currentColor"/><path d="M18.5 11.693C18.5 11.4846 18.3707 11.298 18.1756 11.2248L15.5 10.2215V15.6535L17.8244 16.5252C18.1513 16.6477 18.5 16.4061 18.5 16.057V11.693Z" stroke="currentColor"/><path d="M5.5 11.693C5.5 11.4846 5.62929 11.298 5.82444 11.2248L8.5 10.2215V15.6535L6.17556 16.5252C5.84869 16.6477 5.5 16.4061 5.5 16.057L5.5 11.693Z" stroke="currentColor"/><circle cx="12" cy="9.5" r="1.5" stroke="currentColor"/><path d="M8.5 18.5L9.5 16.5H14.5L15.5 18.5H8.5Z" stroke="currentColor" stroke-linejoin="round"/><path d="M9.5 20.5V21.5M14.5 20.5V21.5M12 20.5V21.5" stroke="currentColor" stroke-linecap="round"/></svg>

<svg xmlns="http://www.w3.org/2000/svg" fill="none" viewBox="0 0 24 24" width="1em" height="1em"><path stroke="currentColor" d="M9 14.5h6M9 6h6M8.5 9.252a9.5 9.5 0 0 1 1.817-5.588l.47-.646a1.5 1.5 0 0 1 2.426 0l.47.646A9.5 9.5 0 0 1 15.5 9.252V16a.5.5 0 0 1-.5.5H9a.5.5 0 0 1-.5-.5V9.252Z"/><path stroke="currentColor" d="M18.5 11.693a.5.5 0 0 0-.324-.468L15.5 10.222v5.431l2.324.872a.5.5 0 0 0 .676-.468v-4.364Zm-13 0a.5.5 0 0 1 .324-.468L8.5 10.222v5.431l-2.324.872a.5.5 0 0 1-.676-.468v-4.364Z"/><circle cx="12" cy="9.5" r="1.5" stroke="currentColor"/><path stroke="currentColor" stroke-linejoin="round" d="m8.5 18.5 1-2h5l1 2h-7Z"/><path stroke="currentColor" stroke-linecap="round" d="M9.5 20.5v1m5-1v1m-2.5-1v1"/></svg>
